Newaita/actions/16/zoom-out-y.svg

<svg height="16" viewBox="0 0 16 16" width="16" xmlns="http://www.w3.org/2000/svg"><g fill="#424242"><path d="m13.230469 1.449219c.734375 0 1.324219.589843 1.324219 1.320312v2.648438h-1.324219v-1.984375c0-.367188-.296875-.664063-.660157-.664063h-1.984374v-1.320312zm-10.585938 9.261719v1.984374c0 .363282.296875.660157.664063.660157h1.984375v1.324219h-2.648438c-.730469 0-1.320312-.589844-1.320312-1.324219v-2.644531zm0 0"/><path d="m1.984375 1.449219c-.367187 0-.660156.292969-.660156.660156v3.96875c0 .367187.292969.660156.660156.660156h3.96875c.367187 0 .660156-.292969.660156-.660156v-3.96875c0-.367187-.292969-.660156-.660156-.660156zm.992187 1.320312h1.984376c.183593 0 .332031.148438.332031.332031v1.984376c0 .183593-.148438.332031-.332031.332031h-1.984376c-.183593 0-.332031-.148438-.332031-.332031v-1.984376c0-.183593.148438-.332031.332031-.332031zm0 0"/><path d="m12.898438 11.703125h-1.320313v-3.300781c0-.183594.144531-.332032.328125-.332032h.664062c.183594 0 .328126.148438.328126.332032zm0 0"/><path d="m9.921875 11.371094h4.632813l-2.316407 3.308594zm0 0"/></g></svg>

<?xml version="1.0" encoding="UTF-8"?>
<svg xmlns="http://www.w3.org/2000/svg" xmlns:xlink="http://www.w3.org/1999/xlink" width="16px" height="16px" viewBox="0 0 16 16" version="1.1">
<g id="surface1">
<path style=" stroke:none;fill-rule:nonzero;fill:rgb(25.882354%,25.882354%,25.882354%);fill-opacity:1;" d="M 13.230469 1.449219 C 13.964844 1.449219 14.554688 2.039062 14.554688 2.769531 L 14.554688 5.417969 L 13.230469 5.417969 L 13.230469 3.433594 C 13.230469 3.066406 12.933594 2.769531 12.570312 2.769531 L 10.585938 2.769531 L 10.585938 1.449219 Z M 2.644531 10.710938 L 2.644531 12.695312 C 2.644531 13.058594 2.941406 13.355469 3.308594 13.355469 L 5.292969 13.355469 L 5.292969 14.679688 L 2.644531 14.679688 C 1.914062 14.679688 1.324219 14.089844 1.324219 13.355469 L 1.324219 10.710938 Z M 2.644531 10.710938 "/>
<path style=" stroke:none;fill-rule:nonzero;fill:rgb(25.882354%,25.882354%,25.882354%);fill-opacity:1;" d="M 1.984375 1.449219 C 1.617188 1.449219 1.324219 1.742188 1.324219 2.109375 L 1.324219 6.078125 C 1.324219 6.445312 1.617188 6.738281 1.984375 6.738281 L 5.953125 6.738281 C 6.320312 6.738281 6.613281 6.445312 6.613281 6.078125 L 6.613281 2.109375 C 6.613281 1.742188 6.320312 1.449219 5.953125 1.449219 Z M 2.976562 2.769531 L 4.960938 2.769531 C 5.144531 2.769531 5.292969 2.917969 5.292969 3.101562 L 5.292969 5.085938 C 5.292969 5.269531 5.144531 5.417969 4.960938 5.417969 L 2.976562 5.417969 C 2.792969 5.417969 2.644531 5.269531 2.644531 5.085938 L 2.644531 3.101562 C 2.644531 2.917969 2.792969 2.769531 2.976562 2.769531 Z M 2.976562 2.769531 "/>
<path style=" stroke:none;fill-rule:nonzero;fill:rgb(25.882354%,25.882354%,25.882354%);fill-opacity:1;" d="M 12.898438 11.703125 L 11.578125 11.703125 L 11.578125 8.402344 C 11.578125 8.21875 11.722656 8.070312 11.90625 8.070312 L 12.570312 8.070312 C 12.753906 8.070312 12.898438 8.21875 12.898438 8.402344 Z M 12.898438 11.703125 "/>
<path style=" stroke:none;fill-rule:nonzero;fill:rgb(25.882354%,25.882354%,25.882354%);fill-opacity:1;" d="M 9.921875 11.371094 L 14.554688 11.371094 L 12.238281 14.679688 Z M 9.921875 11.371094 "/>
</g>
</svg>
